ligands/bidentate/bpy-bipyridine.svg

<svg height="256" viewBox="0 0 256 256" width="256" xmlns="http://www.w3.org/2000/svg"><path d="m0 0h256v256h-256z" fill="#fff"/><ellipse cx="127.7" cy="81.4" fill="#ff7f7f" fill-rule="evenodd" rx="14" ry="14" stroke="#ff7f7f"/><g fill="none" stroke="#000" stroke-width="2"><path d="m151.2 153.4 31.4 34.7"/><path d="m159.2 151.7 25.9 28.7"/><path d="m182.6 188.1 45.8-9.8"/><path d="m228.4 178.3 14.4-44.5"/><path d="m223 172.3 11.9-36.9"/><path d="m242.8 133.8-31.4-34.8"/><path d="m211.4 99-35.8 7.7"/><path d="m208.9 106.7-31.8 6.9"/><path d="m95 124.5 9.4 28.9"/><path d="m101.7 122.3 7.8 24.1"/><path d="m104.4 153.4-31.3 34.9"/><path d="m73.1 188.3-45.8-9.7"/><path d="m70.6 180.6-37.8-8"/><path d="m27.3 178.6-14.5-44.5"/><path d="m12.8 134.1 31.3-34.8"/><path d="m20.7 135.8 25.9-28.8"/><path d="m160.6 124.4-9.4 29"/><path d="m104.4 153.4h46.8"/><path d="m44.1 99.3 35.8 7.5"/><path d="m155.7 101.6-18-13"/><path d="m99.9 101.7 17.8-13.1"/><path d="m181.1 186.4 1.5 1.7 2.3-.5" stroke-miterlimit="10"/><path d="m226.1 178.8 2.3-.5.7-2.2" stroke-miterlimit="10"/><path d="m242.1 136 .7-2.2-1.6-1.8" stroke-miterlimit="10"/><path d="m213 100.7-1.6-1.7-1.8.4" stroke-miterlimit="10"/><path d="m74.7 186.5-1.6 1.8-2.2-.5" stroke-miterlimit="10"/><path d="m29.6 179.1-2.3-.5-.7-2.2" stroke-miterlimit="10"/><path d="m13.5 136.4-.7-2.3 1.6-1.7" stroke-miterlimit="10"/><path d="m42.5 101 1.6-1.7 1.8.4" stroke-miterlimit="10"/></g><text font-family="sans-serif" font-size="28" x="157.2" y="122.9">N</text><text x="119.3" y="95.4"/><text font-family="sans-serif" font-size="28" x="81.5" y="123">N</text></svg>

<?xml version='1.0' encoding='iso-8859-1'?>
<svg version='1.1' baseProfile='full'
              xmlns='http://www.w3.org/2000/svg'
                      xmlns:rdkit='http://www.rdkit.org/xml'
                      xmlns:xlink='http://www.w3.org/1999/xlink'
                  xml:space='preserve'
width='256px' height='256px' viewBox='0 0 256 256'>
<!-- END OF HEADER -->
<rect style='opacity:1.0;fill:#FFFFFF;stroke:none' width='256.0' height='256.0' x='0.0' y='0.0'> </rect>
<ellipse cx='127.7' cy='81.4' rx='14.0' ry='14.0' class='atom-6'  style='fill:#FF7F7F;fill-rule:evenodd;stroke:#FF7F7F;stroke-width:1.0px;stroke-linecap:butt;stroke-linejoin:miter;stroke-opacity:1' />
<path class='bond-0 atom-0 atom-1' d='M 151.2,153.4 L 182.6,188.1' style='fill:none;fill-rule:evenodd;stroke:#000000;stroke-width:2.0px;stroke-linecap:butt;stroke-linejoin:miter;stroke-opacity:1' />
<path class='bond-0 atom-0 atom-1' d='M 159.2,151.7 L 185.1,180.4' style='fill:none;fill-rule:evenodd;stroke:#000000;stroke-width:2.0px;stroke-linecap:butt;stroke-linejoin:miter;stroke-opacity:1' />
<path class='bond-1 atom-1 atom-2' d='M 182.6,188.1 L 228.4,178.3' style='fill:none;fill-rule:evenodd;stroke:#000000;stroke-width:2.0px;stroke-linecap:butt;stroke-linejoin:miter;stroke-opacity:1' />
<path class='bond-2 atom-2 atom-3' d='M 228.4,178.3 L 242.8,133.8' style='fill:none;fill-rule:evenodd;stroke:#000000;stroke-width:2.0px;stroke-linecap:butt;stroke-linejoin:miter;stroke-opacity:1' />
<path class='bond-2 atom-2 atom-3' d='M 223.0,172.3 L 234.9,135.4' style='fill:none;fill-rule:evenodd;stroke:#000000;stroke-width:2.0px;stroke-linecap:butt;stroke-linejoin:miter;stroke-opacity:1' />
<path class='bond-3 atom-3 atom-4' d='M 242.8,133.8 L 211.4,99.0' style='fill:none;fill-rule:evenodd;stroke:#000000;stroke-width:2.0px;stroke-linecap:butt;stroke-linejoin:miter;stroke-opacity:1' />
<path class='bond-4 atom-4 atom-5' d='M 211.4,99.0 L 175.6,106.7' style='fill:none;fill-rule:evenodd;stroke:#000000;stroke-width:2.0px;stroke-linecap:butt;stroke-linejoin:miter;stroke-opacity:1' />
<path class='bond-4 atom-4 atom-5' d='M 208.9,106.7 L 177.1,113.6' style='fill:none;fill-rule:evenodd;stroke:#000000;stroke-width:2.0px;stroke-linecap:butt;stroke-linejoin:miter;stroke-opacity:1' />
<path class='bond-5 atom-7 atom-8' d='M 95.0,124.5 L 104.4,153.4' style='fill:none;fill-rule:evenodd;stroke:#000000;stroke-width:2.0px;stroke-linecap:butt;stroke-linejoin:miter;stroke-opacity:1' />
<path class='bond-5 atom-7 atom-8' d='M 101.7,122.3 L 109.5,146.4' style='fill:none;fill-rule:evenodd;stroke:#000000;stroke-width:2.0px;stroke-linecap:butt;stroke-linejoin:miter;stroke-opacity:1' />
<path class='bond-6 atom-8 atom-9' d='M 104.4,153.4 L 73.1,188.3' style='fill:none;fill-rule:evenodd;stroke:#000000;stroke-width:2.0px;stroke-linecap:butt;stroke-linejoin:miter;stroke-opacity:1' />
<path class='bond-7 atom-9 atom-10' d='M 73.1,188.3 L 27.3,178.6' style='fill:none;fill-rule:evenodd;stroke:#000000;stroke-width:2.0px;stroke-linecap:butt;stroke-linejoin:miter;stroke-opacity:1' />
<path class='bond-7 atom-9 atom-10' d='M 70.6,180.6 L 32.8,172.6' style='fill:none;fill-rule:evenodd;stroke:#000000;stroke-width:2.0px;stroke-linecap:butt;stroke-linejoin:miter;stroke-opacity:1' />
<path class='bond-8 atom-10 atom-11' d='M 27.3,178.6 L 12.8,134.1' style='fill:none;fill-rule:evenodd;stroke:#000000;stroke-width:2.0px;stroke-linecap:butt;stroke-linejoin:miter;stroke-opacity:1' />
<path class='bond-9 atom-11 atom-12' d='M 12.8,134.1 L 44.1,99.3' style='fill:none;fill-rule:evenodd;stroke:#000000;stroke-width:2.0px;stroke-linecap:butt;stroke-linejoin:miter;stroke-opacity:1' />
<path class='bond-9 atom-11 atom-12' d='M 20.7,135.8 L 46.6,107.0' style='fill:none;fill-rule:evenodd;stroke:#000000;stroke-width:2.0px;stroke-linecap:butt;stroke-linejoin:miter;stroke-opacity:1' />
<path class='bond-10 atom-5 atom-0' d='M 160.6,124.4 L 151.2,153.4' style='fill:none;fill-rule:evenodd;stroke:#000000;stroke-width:2.0px;stroke-linecap:butt;stroke-linejoin:miter;stroke-opacity:1' />
<path class='bond-11 atom-8 atom-0' d='M 104.4,153.4 L 151.2,153.4' style='fill:none;fill-rule:evenodd;stroke:#000000;stroke-width:2.0px;stroke-linecap:butt;stroke-linejoin:miter;stroke-opacity:1' />
<path class='bond-12 atom-12 atom-7' d='M 44.1,99.3 L 79.9,106.8' style='fill:none;fill-rule:evenodd;stroke:#000000;stroke-width:2.0px;stroke-linecap:butt;stroke-linejoin:miter;stroke-opacity:1' />
<path class='bond-13 atom-5 atom-6' d='M 155.7,101.6 L 137.7,88.6' style='fill:none;fill-rule:evenodd;stroke:#000000;stroke-width:2.0px;stroke-linecap:butt;stroke-linejoin:miter;stroke-opacity:1' />
<path class='bond-14 atom-7 atom-6' d='M 99.9,101.7 L 117.7,88.6' style='fill:none;fill-rule:evenodd;stroke:#000000;stroke-width:2.0px;stroke-linecap:butt;stroke-linejoin:miter;stroke-opacity:1' />
<path d='M 181.1,186.4 L 182.6,188.1 L 184.9,187.6' style='fill:none;stroke:#000000;stroke-width:2.0px;stroke-linecap:butt;stroke-linejoin:miter;stroke-miterlimit:10;stroke-opacity:1;' />
<path d='M 226.1,178.8 L 228.4,178.3 L 229.1,176.1' style='fill:none;stroke:#000000;stroke-width:2.0px;stroke-linecap:butt;stroke-linejoin:miter;stroke-miterlimit:10;stroke-opacity:1;' />
<path d='M 242.1,136.0 L 242.8,133.8 L 241.2,132.0' style='fill:none;stroke:#000000;stroke-width:2.0px;stroke-linecap:butt;stroke-linejoin:miter;stroke-miterlimit:10;stroke-opacity:1;' />
<path d='M 213.0,100.7 L 211.4,99.0 L 209.6,99.4' style='fill:none;stroke:#000000;stroke-width:2.0px;stroke-linecap:butt;stroke-linejoin:miter;stroke-miterlimit:10;stroke-opacity:1;' />
<path d='M 74.7,186.5 L 73.1,188.3 L 70.9,187.8' style='fill:none;stroke:#000000;stroke-width:2.0px;stroke-linecap:butt;stroke-linejoin:miter;stroke-miterlimit:10;stroke-opacity:1;' />
<path d='M 29.6,179.1 L 27.3,178.6 L 26.6,176.4' style='fill:none;stroke:#000000;stroke-width:2.0px;stroke-linecap:butt;stroke-linejoin:miter;stroke-miterlimit:10;stroke-opacity:1;' />
<path d='M 13.5,136.4 L 12.8,134.1 L 14.4,132.4' style='fill:none;stroke:#000000;stroke-width:2.0px;stroke-linecap:butt;stroke-linejoin:miter;stroke-miterlimit:10;stroke-opacity:1;' />
<path d='M 42.5,101.0 L 44.1,99.3 L 45.9,99.7' style='fill:none;stroke:#000000;stroke-width:2.0px;stroke-linecap:butt;stroke-linejoin:miter;stroke-miterlimit:10;stroke-opacity:1;' />
<text x='157.2' y='122.9' class='atom-5' style='font-size:28px;font-style:normal;font-weight:normal;fill-opacity:1;stroke:none;font-family:sans-serif;text-anchor:start;fill:#000000' >N</text>
<text x='119.3' y='95.4' class='atom-6' style='font-size:28px;font-style:normal;font-weight:normal;fill-opacity:1;stroke:none;font-family:sans-serif;text-anchor:start;fill:#000000' ></text>
<text x='81.5' y='123.0' class='atom-7' style='font-size:28px;font-style:normal;font-weight:normal;fill-opacity:1;stroke:none;font-family:sans-serif;text-anchor:start;fill:#000000' >N</text>
</svg>
